X: 159
T: Shepherd's Daughter
T: Parson upon Dorothy
M:4/4
L:1/8
Q:160
S:Playford
O:Manuscript
A:English
K:Dm
D2 | G3G  ABcA | B3c B2d2 | c2B2 ABcA | B4 B2D2 | G3G  ABcA | B3c B2d2 | c2B2 ABcA | B4 B2 ||
d2 | c2B2 ABcB | B3c B2d2 | c2B2 ABcB | B4 B2D2 | c2B2 ABcB | B3c B2d2 | c2B2 ABcB | B4 B2 ||
d2 | c3B  A2c2 | B3A G3B2 | A2G2 G2F2 | G4 D4   | c3B  ABcA | B3A G2B2 | A2G2 G2F2 | G4 G2 |]
